electric-switch.svg

<svg fill="currentColor" viewBox="0 0 24 24"><path d="M1 11h2.17C3.58 9.83 4.69 9 6 9c.65 0 1.25.21 1.74.56l6.7-4.69 1.14 1.63-6.69 4.7c.07.25.11.52.11.8a3 3 0 0 1-3 3 2.99 2.99 0 0 1-2.83-2H1zm22 0v2h-2.17A2.99 2.99 0 0 1 18 15a3 3 0 0 1-3-3 3 3 0 0 1 3-3c1.31 0 2.42.83 2.83 2zM6 11a1 1 0 0 0-1 1 1 1 0 0 0 1 1 1 1 0 0 0 1-1 1 1 0 0 0-1-1m12 0a1 1 0 0 0-1 1 1 1 0 0 0 1 1 1 1 0 0 0 1-1 1 1 0 0 0-1-1"/></svg>

<svg  viewBox="0 0 24 24" fill="currentColor"><path  d="M1,11H3.17C3.58,9.83 4.69,9 6,9C6.65,9 7.25,9.21 7.74,9.56L14.44,4.87L15.58,6.5L8.89,11.2C8.96,11.45 9,11.72 9,12A3,3 0 0,1 6,15C4.69,15 3.58,14.17 3.17,13H1V11M23,11V13H20.83C20.42,14.17 19.31,15 18,15A3,3 0 0,1 15,12A3,3 0 0,1 18,9C19.31,9 20.42,9.83 20.83,11H23M6,11A1,1 0 0,0 5,12A1,1 0 0,0 6,13A1,1 0 0,0 7,12A1,1 0 0,0 6,11M18,11A1,1 0 0,0 17,12A1,1 0 0,0 18,13A1,1 0 0,0 19,12A1,1 0 0,0 18,11Z"/></svg>
